X: 116
M: C
L: 1/8
K: G
|:\
gfga g2b2 | a2gf g4 | d2cB e2d2 | Tc4 B4 |\
|:\
agab a4 | b2b2 b4 | e2ab c'bag | Tf4 e4 |\
edcB c4 | dcBA B4 | gfed c'bag | Tf4 g4 :|


